src/assets/duotone/VideoTime.svg

<?xml version="1.0" encoding="UTF-8"?>
<svg width="24" height="24" viewBox="0 0 24 24" xmlns="http://www.w3.org/2000/svg">
 <path d="m21.98 15.65c-0.82-1.01-2.07-1.65-3.48-1.65-1.06 0-2.04 0.37-2.81 0.99-1.04 0.82-1.69 2.09-1.69 3.51 0 1.41 0.64 2.66 1.65 3.48 0.77 0.64 1.77 1.02 2.85 1.02 1.14 0 2.17-0.43 2.97-1.12 0.93-0.83 1.53-2.03 1.53-3.38 0-1.08-0.38-2.08-1.02-2.85zm-2.45 3.13c0 0.26-0.14 0.51-0.36 0.64l-1.41 0.84c-0.12 0.07-0.25 0.11-0.39 0.11-0.25 0-0.5-0.13-0.64-0.36-0.21-0.36-0.1-0.82 0.26-1.03l1.04-0.62v-1.26c0-0.41 0.34-0.75 0.75-0.75s0.75 0.34 0.75 0.75v1.68z"/>
 <path d="m22 7.81v7.89c0-0.01-0.01-0.02-0.02-0.03-0.04-0.06-0.09-0.12-0.14-0.17-0.01-0.01-0.02-0.03-0.03-0.04-0.81-0.9-2-1.46-3.31-1.46-1.26 0-2.41 0.52-3.23 1.36-0.79 0.81-1.27 1.92-1.27 3.14 0 0.84 0.24 1.64 0.65 2.32 0.22 0.37 0.5 0.71 0.82 0.99 0.02 0.01 0.03 0.02 0.04 0.03 0.05 0.05 0.1 0.09 0.16 0.14h0.01c0.01 0.01 0.02 0.02 0.03 0.02h-7.9c-3.64 0-5.81-2.17-5.81-5.81v-8.38c0-0.51 0.04-1 0.13-1.45 0.51-2.75 2.54-4.35 5.64-4.36h8.46c3.1 0.01 5.13 1.61 5.64 4.36 0.09 0.45 0.13 0.94001 0.13 1.45z" opacity=".4"/>
 <path d="m22 7.81v0.04999h-20v-0.04999c0-0.51 0.04-1 0.13-1.45h5.64v-4.36h1.5v4.36h5.46v-4.36h1.5v4.36h5.64c0.09 0.45 0.13 0.94001 0.13 1.45z"/>
</svg>

<svg width="24" height="24" viewBox="0 0 24 24"  xmlns="http://www.w3.org/2000/svg">
<path d="M21.98 15.65C21.16 14.64 19.91 14 18.5 14C17.44 14 16.46 14.37 15.69 14.99C14.65 15.81 14 17.08 14 18.5C14 19.91 14.64 21.16 15.65 21.98C16.42 22.62 17.42 23 18.5 23C19.64 23 20.67 22.57 21.47 21.88C22.4 21.05 23 19.85 23 18.5C23 17.42 22.62 16.42 21.98 15.65ZM19.53 18.78C19.53 19.04 19.39 19.29 19.17 19.42L17.76 20.26C17.64 20.33 17.51 20.37 17.37 20.37C17.12 20.37 16.87 20.24 16.73 20.01C16.52 19.65 16.63 19.19 16.99 18.98L18.03 18.36V17.1C18.03 16.69 18.37 16.35 18.78 16.35C19.19 16.35 19.53 16.69 19.53 17.1V18.78Z" />
<path opacity="0.4" d="M22 7.81V15.7C22 15.69 21.99 15.68 21.98 15.67C21.94 15.61 21.89 15.55 21.84 15.5C21.83 15.49 21.82 15.47 21.81 15.46C21 14.56 19.81 14 18.5 14C17.24 14 16.09 14.52 15.27 15.36C14.48 16.17 14 17.28 14 18.5C14 19.34 14.24 20.14 14.65 20.82C14.87 21.19 15.15 21.53 15.47 21.81C15.49 21.82 15.5 21.83 15.51 21.84C15.56 21.89 15.61 21.93 15.67 21.98C15.67 21.98 15.67 21.98 15.68 21.98C15.69 21.99 15.7 22 15.71 22H7.81C4.17 22 2 19.83 2 16.19V7.81C2 7.3 2.04 6.80999 2.13 6.35999C2.64 3.60999 4.66999 2.01 7.76999 2H16.23C19.33 2.01 21.36 3.60999 21.87 6.35999C21.96 6.80999 22 7.3 22 7.81Z" />
<path d="M22 7.81V7.85999H2V7.81C2 7.3 2.04 6.80999 2.13 6.35999H7.76999V2H9.26999V6.35999H14.73V2H16.23V6.35999H21.87C21.96 6.80999 22 7.3 22 7.81Z" />
</svg>
